X: 1
T: Deio y Dywyn
T: Wrth Fynd Hefo Deio i Dywyn
O: trad Wales
Z: 1999 John Chambers <jc@trillian.mit.edu> http://trillian.mit.edu/~jc/music/
M: 4/4
L: 1/8
K: Edor
|: "Em"B2 B2 G2 B2 | "D"A2 F2 D2 F2 | "Em"E^D EF GF GA | "Bm"B2 D2 "Em fine"E4 :|
|| "Em"B2 B2 "D"d2 c2 | "Em"B2 e2 "Bm"B4 | "Em"B^A Bc d2 "D"dB | "Em"B2 e2 "Bm daCapo" B4 |]
